!!!OTL@@FUR: Oh ce biel ciscjel a Udin
!!!OTL@IT: Com'&egrave; il castello di Udine
!!!OTL@EN: Oh, what a beautiful castle at Udine
**kern
*clefG2
*k[f#]
*G:
*M2/4
*MM90
*>[A]
=1
*>A
4g
4g
=2
4g
8f#
8g
=3
8a
8g
8f#
8g
=4
4a
8d
8r
=5
4a
4a
=6
4a
8g
8a
=7
8b
8a
8g
8a
=8
4b
8g
8r
=9
4dd
4gg
=10
4.ee
8dd
=11
4cc
4ee
=12
4.dd
8cc
=13
4b
4dd
=14
4.cc
8b
=15
4a
4cc
=16
2b
=17
4dd
4gg
=18
4.ee
8dd
=19
4cc
4ee
=20
4.dd
8cc
=21
4b
4dd
=22
4.cc
8b
=23
4a
4cc
=24
2b
==
*-
!!!ARE: Friuli
!!!ENC: Kelly Leistikow
!!!END: 2002/03/07
!!!ref: @{OTL@@FUR}/@{OTL@EN}
